icons/circle/48/chrome-mojepfklcankkmikonjlnidiooanmpbb-Default.svg

<svg xmlns="http://www.w3.org/2000/svg" viewBox="0 0 48 48">
 <defs>
  <linearGradient id="linearGradient3065" gradientUnits="userSpaceOnUse" y1="3" x2="0" y2="45">
   <stop style="stop-color:#fb753d;stop-opacity:1"/>
   <stop offset="1" style="stop-color:#ff4c69;stop-opacity:1"/>
  </linearGradient>
  <linearGradient id="linearGradient3113" gradientUnits="userSpaceOnUse" gradientTransform="matrix(0,-1,1,0,-1.5e-6,47.999998)" x1="1" x2="47">
   <stop style="stop-color:#e4e4e4;stop-opacity:1"/>
   <stop offset="1" style="stop-color:#eee;stop-opacity:1"/>
  </linearGradient>
 </defs>
 <g>
  <path d="m 36.31 5 c 5.859 4.062 9.688 10.831 9.688 18.5 c 0 12.426 -10.07 22.5 -22.5 22.5 c -7.669 0 -14.438 -3.828 -18.5 -9.688 c 1.037 1.822 2.306 3.499 3.781 4.969 c 4.085 3.712 9.514 5.969 15.469 5.969 c 12.703 0 23 -10.298 23 -23 c 0 -5.954 -2.256 -11.384 -5.969 -15.469 c -1.469 -1.475 -3.147 -2.744 -4.969 -3.781 z m 4.969 3.781 c 3.854 4.113 6.219 9.637 6.219 15.719 c 0 12.703 -10.297 23 -23 23 c -6.081 0 -11.606 -2.364 -15.719 -6.219 c 4.16 4.144 9.883 6.719 16.219 6.719 c 12.703 0 23 -10.298 23 -23 c 0 -6.335 -2.575 -12.06 -6.719 -16.219 z" style="opacity:0.05"/>
  <path d="m 41.28 8.781 c 3.712 4.085 5.969 9.514 5.969 15.469 c 0 12.703 -10.297 23 -23 23 c -5.954 0 -11.384 -2.256 -15.469 -5.969 c 4.113 3.854 9.637 6.219 15.719 6.219 c 12.703 0 23 -10.298 23 -23 c 0 -6.081 -2.364 -11.606 -6.219 -15.719 z" style="opacity:0.1"/>
  <path d="m 31.25 2.375 c 8.615 3.154 14.75 11.417 14.75 21.13 c 0 12.426 -10.07 22.5 -22.5 22.5 c -9.708 0 -17.971 -6.135 -21.12 -14.75 a 23 23 0 0 0 44.875 -7 a 23 23 0 0 0 -16 -21.875 z" style="opacity:0.2"/>
 </g>
 <path d="M 25,2 C 37.699,2 48,12.297 48,25 48,37.699 37.699,48 25,48 12.297,48 2,37.699 2,25 2,12.297 12.297,2 25,2 m 0,0" style="fill:#000;opacity:0.1;fill-opacity:0.502;stroke:none;fill-rule:evenodd"/>
 <path d="m 1 24 c 0 1.019 0.059 2.02 0.188 3 l 45.625 0 c 0.128 -0.984 0.188 -1.981 0.188 -3 z m 0.563 5.03 c 0.149 0.665 0.326 1.327 0.531 1.969 -0.205 -0.643 -0.378 -1.301 -0.531 -1.969 z m 0.531 1.969 c 0.331 1.037 0.751 2.033 1.219 3 l 41.38 0 c 0.468 -0.967 0.888 -1.963 1.219 -3 z m 43.813 0 c 0.205 -0.642 0.383 -1.304 0.531 -1.969 -0.153 0.668 -0.326 1.326 -0.531 1.969 z m -40.16 7 c 0.826 1.075 1.75 2.088 2.75 3 l 31 0 c 1 -0.912 1.924 -1.925 2.75 -3 z" style="fill:url(#linearGradient3113);fill-opacity:1"/>
 <path d="m 1 24 c 0 0.334 0.017 0.669 0.031 1 l 45.938 0 c 0.014 -0.331 0.031 -0.666 0.031 -1 z m 1.125 7 c 0.107 0.332 0.192 0.675 0.313 1 l 43.13 0 c 0.121 -0.325 0.205 -0.668 0.313 -1 z m 3.625 7 c 0.259 0.34 0.533 0.676 0.813 1 l 34.875 0 c 0.279 -0.324 0.553 -0.66 0.813 -1 z" style="fill:#000;opacity:0.1;stroke:none;fill-rule:evenodd"/>
 <path d="m 24 1 c -12.703 0 -23 10.297 -23 23 l 46 0 c 0 -12.703 -10.301 -23 -23 -23 z m -22.813 26 c 0.179 1.373 0.496 2.714 0.906 4 l 43.813 0 c 0.411 -1.286 0.727 -2.627 0.906 -4 l -45.625 0 z m 2.125 7 c 0.688 1.421 1.484 2.761 2.438 4 l 36.5 0 c 0.953 -1.239 1.75 -2.579 2.438 -4 l -41.37 0 z m 5.188 7 c 4.088 3.73 9.53 6 15.5 6 c 5.969 0 11.411 -2.27 15.5 -6 l -31 0 z" style="fill:url(#linearGradient3065);stroke:none;fill-rule:evenodd"/>
 <g>
  <path d="m 40.03 7.531 c 3.712 4.084 5.969 9.514 5.969 15.469 0 12.703 -10.297 23 -23 23 c -5.954 0 -11.384 -2.256 -15.469 -5.969 4.178 4.291 10.01 6.969 16.469 6.969 c 12.703 0 23 -10.298 23 -23 0 -6.462 -2.677 -12.291 -6.969 -16.469 z" style="opacity:0.1"/>
 </g>
</svg>

<svg xmlns="http://www.w3.org/2000/svg" viewBox="0 0 48 48">
  <defs>
    <linearGradient id="b" gradientUnits="userSpaceOnUse" y1="3" x2="0" y2="45">
      <stop stop-color="#fb753d"/>
      <stop offset="1" stop-color="#ff4c69"/>
    </linearGradient>
    <linearGradient id="a" gradientUnits="userSpaceOnUse" gradientTransform="rotate(-90 24 24)" x1="1" x2="47">
      <stop stop-color="#e4e4e4"/>
      <stop offset="1" stop-color="#eee"/>
    </linearGradient>
  </defs>
  <path d="M36.31 5c5.859 4.062 9.688 10.831 9.688 18.5 0 12.426-10.07 22.5-22.5 22.5-7.669 0-14.438-3.828-18.5-9.688a23.24 23.24 0 0 0 3.781 4.969 22.923 22.923 0 0 0 15.469 5.969c12.703 0 23-10.298 23-23a22.92 22.92 0 0 0-5.969-15.469A23.216 23.216 0 0 0 36.31 5zm4.969 3.781A22.911 22.911 0 0 1 47.498 24.5c0 12.703-10.297 23-23 23a22.909 22.909 0 0 1-15.719-6.219C12.939 45.425 18.662 48 24.998 48c12.703 0 23-10.298 23-23 0-6.335-2.575-12.06-6.719-16.219z" opacity=".05"/>
  <path d="M41.28 8.781a22.923 22.923 0 0 1 5.969 15.469c0 12.703-10.297 23-23 23A22.92 22.92 0 0 1 8.78 41.281 22.911 22.911 0 0 0 24.499 47.5c12.703 0 23-10.298 23-23A22.909 22.909 0 0 0 41.28 8.781z" opacity=".1"/>
  <path d="M31.25 2.375C39.865 5.529 46 13.792 46 23.505c0 12.426-10.07 22.5-22.5 22.5-9.708 0-17.971-6.135-21.12-14.75a23 23 0 0 0 44.875-7 23 23 0 0 0-16-21.875z" opacity=".2"/>
  <path d="M25 2c12.699 0 23 10.297 23 23 0 12.699-10.301 23-23 23C12.297 48 2 37.699 2 25 2 12.297 12.297 2 25 2m0 0" opacity=".1" fill-opacity=".502" fill-rule="evenodd"/>
  <path d="M1 24c0 1.019.059 2.02.188 3h45.625c.128-.984.188-1.981.188-3zm.563 5.03zm.531 1.969a22.833 22.833 0 0 0 1.219 3h41.38c.468-.967.888-1.963 1.219-3zm43.813 0zm-40.16 7a23.202 23.202 0 0 0 2.75 3h31c1-.912 1.924-1.925 2.75-3z" fill="url(#a)"/>
  <path d="M1 24c0 .334.017.669.031 1h45.938c.014-.331.031-.666.031-1zm1.125 7c.107.332.192.675.313 1h43.13c.121-.325.205-.668.313-1zm3.625 7c.259.34.533.676.813 1h34.875c.279-.324.553-.66.813-1z" opacity=".1" fill-rule="evenodd"/>
  <path d="M24 1C11.297 1 1 11.297 1 24h46C47 11.297 36.699 1 24 1zM1.187 27c.179 1.373.496 2.714.906 4h43.813c.411-1.286.727-2.627.906-4H1.187zm2.125 7C4 35.421 4.796 36.761 5.75 38h36.5c.953-1.239 1.75-2.579 2.438-4H3.318zM8.5 41c4.088 3.73 9.53 6 15.5 6 5.969 0 11.411-2.27 15.5-6h-31z" fill="url(#b)" fill-rule="evenodd"/>
  <g>
    <path d="M40.03 7.531A22.922 22.922 0 0 1 45.999 23c0 12.703-10.297 23-23 23A22.92 22.92 0 0 1 7.53 40.031C11.708 44.322 17.54 47 23.999 47c12.703 0 23-10.298 23-23 0-6.462-2.677-12.291-6.969-16.469z" opacity=".1"/>
  </g>
</svg>
